X:28
T:Giuseppina
C:Traditional 
N:Arranged for mandolin by Mike Stangeland
L:1/8
Q:1/4=295
M:4/4
K:G
z8 | "G"[g4B4G4] "E"[e4B4^G4] | "Am"[e2c2A2] ee e2 f2 | "D"g2 f2 e2 f2 | "G"e3d d4 | 
"E"^G,2 A,2 ^A,2 B,2 | "Am"C2 ^C2 D2 ^D2 | "D"E2 =F2 ^F3D | "G"E2 D2 B,2 D2 | 
"G"[g4B4G4] "E"[e4B4^G4] | "Am"[e2c2A2] ee e2 f2 | "D"g2 f2 e2 f2 | "G"e3d d4 | 
"E"^G,2 A,2 ^A,2 B,2 | "Am"C2 ^C2 D2 ^D2 | "D"E2 =F2 ^F2 D2 | "G"G8 | "Em"bg eg "B7"bf ^df | 
"Em"bg eg "E"b^g eg | "Am"c'a ea c'a ea | "Em"bg eg bg eg | b2 c'b ag fe | "B7"^d2 b2 f2 b2 | 
^d2 b2 f2 b2 | "Em"ga gf e4 | "Em"bg eg "B7"bf ^df | "Em"bg eg "E"b^g eg | "Am"c'a ea c'a ea | 
"Em"bg eg bg eg | b2 c'b ag fe | "Bm"d2 ef gf ed | "F#"^cB AG FE D^C | "Bm"B,4 [b4d4F4B,4] | 
K:C
|: z4 ga gf | "C"e2 c'2 c'2 b2 | b3a a2 gg | g2 ^fg ag ec | "G"B4 ga g^f | f2 [d2G2] [d2G2] [c2F2] | 
[c3E3]B B2 A2 | G^F G^G BA =G=F | "C"E^D EF GA GF | E2 [e2c2] [e2B2] [d2_B2] | 
"A"[d3A3]^c c2 _B2 | A2 ^GA _B=B c^c | "Dm"d6 ^GA | "F"dc BA "D7"dc BA | "C"G2 ^fg ag =fe | 
"G"dc BA GF ED | "C"C8 | z6 E2 | 
K:E
"E"=F2 E2 G,2 B,2 | "Am"=D3=C B,2 C2 | B,2 A,2 G,2 A,2 | "E"B,2 EE E2 E2 | =F2 E2 G,2 B,2 | 
"Am"=D3=C B,2 C2 | B,2 A,2 G,2 =F2 | [e8e8G8E8] :| 
K:G
z8 | z8 | z8 | z8 | z8 | z8 | z8 | z8 | z8 | z8 | z8 | z8 | z8 | z8 | z8 | z8 | 
z8 | z8 | z8 | z8 | z8 | z8 | z8 | z8 | z8 | z8 | 
 

